src/assets/settings.svg

<svg width="40" height="40" viewBox="0 0 40 40" fill="none" xmlns="http://www.w3.org/2000/svg">
<path d="M13.7188 19.9996L17.6649 23.9621L25.5735 16.0371" stroke="white" stroke-width="2.4561" stroke-linecap="round" stroke-linejoin="round"/>
<path d="M17.6082 4.36322C18.738 3.39715 20.5882 3.39715 21.7344 4.36322L24.3215 6.59009C24.8127 7.01582 25.7297 7.35967 26.3846 7.35967H29.1682C30.9039 7.35967 32.3284 8.78421 32.3284 10.5199V13.3034C32.3284 13.942 32.6723 14.8753 33.098 15.3666L35.3249 17.9537C36.2909 19.0835 36.2909 20.9337 35.3249 22.0799L33.098 24.667C32.6723 25.1582 32.3284 26.0752 32.3284 26.7301V29.5137C32.3284 31.2494 30.9039 32.6739 29.1682 32.6739H26.3846C25.746 32.6739 24.8127 33.0178 24.3215 33.4435L21.7344 35.6704C20.6046 36.6364 18.7543 36.6364 17.6082 35.6704L15.0211 33.4435C14.5298 33.0178 13.6129 32.6739 12.9579 32.6739H10.1252C8.38957 32.6739 6.96503 31.2494 6.96503 29.5137V26.7138C6.96503 26.0752 6.62118 25.1582 6.21183 24.667L4.00133 22.0635C3.05164 20.9337 3.05164 19.0998 4.00133 17.97L6.21183 15.3666C6.62118 14.8753 6.96503 13.9584 6.96503 13.3198V10.5035C6.96503 8.76784 8.38957 7.3433 10.1252 7.3433H12.9579C13.5965 7.3433 14.5298 6.99944 15.0211 6.57372L17.6082 4.36322Z" stroke="white" stroke-width="2.4561" stroke-linecap="round" stroke-linejoin="round"/>
</svg>

<svg xmlns="http://www.w3.org/2000/svg" width="40" height="40" fill="none"><path stroke="#fff" stroke-linecap="round" stroke-linejoin="round" stroke-width="2.456" d="m13.719 20 3.946 3.962 7.909-7.925"/><path stroke="#fff" stroke-linecap="round" stroke-linejoin="round" stroke-width="2.456" d="M17.608 4.363c1.13-.966 2.98-.966 4.126 0l2.587 2.227c.492.426 1.409.77 2.064.77h2.783a3.173 3.173 0 0 1 3.16 3.16v2.783c0 .639.344 1.572.77 2.064l2.227 2.587c.966 1.13.966 2.98 0 4.126l-2.227 2.587c-.426.491-.77 1.408-.77 2.063v2.784a3.173 3.173 0 0 1-3.16 3.16h-2.783c-.639 0-1.572.344-2.064.77l-2.587 2.226c-1.13.966-2.98.966-4.126 0l-2.587-2.227c-.491-.425-1.408-.77-2.063-.77h-2.833a3.173 3.173 0 0 1-3.16-3.16v-2.8c0-.638-.344-1.555-.753-2.046l-2.21-2.604c-.95-1.13-.95-2.963 0-4.093l2.21-2.603c.41-.492.753-1.409.753-2.047v-2.816a3.173 3.173 0 0 1 3.16-3.16h2.833c.639 0 1.572-.345 2.063-.77z"/></svg>
